icon-themes/sifr_svg/cmd/sc_texttocolumns.svg

<svg viewBox="0 0 16 16" xmlns="http://www.w3.org/2000/svg"><path d="m2 1v4h2v-2h8v2h2v-4zm1 5c-1.656854 0-3 1.3431458-3 3 0 1.656854 1.343146 3 3 3h2.8222656l-.5097656.28125c-.18267.19029-.3074.461911-.3125.71875v1h.4140625.5859375c.30945 0 .55232-.09029.75-.28125l2.25-1.84375v-1.705078c-1.083465-.9581341-1.166533-1.068043-2.25-1.888672-.19768-.19095-.474871-.28125-.75-.28125h-.5859375-.4140625v1c0 .25689.12983.52846.3125.71875l.5097656.28125h-2.8222656c-.552285 0-1-.447715-1-1 0-.5522847.447715-1 1-1zm1 0v1h1.4140625.5859375c.4939355 0 1.024963.1564612 1.4453125.5625.2482837.1890701.3761515.2984103.5507813.4375h1.0039062v.8378906c.200706.1765979.3591671.3141322.6621094.5820313l.3378906.2988281v2.628906l-1 .820313v.832031h-1.015625l-.5996094.492188.0605469-.054688c-.3787639.365888-.9413453.5625-1.4453125.5625h-.5859375-1.4140625v1h12v-10zm7 2h3v2h-3zm0 4h3v2h-3z" fill="#555753"/></svg>

<svg xmlns="http://www.w3.org/2000/svg" viewBox="0 0 16 16">
  <path
     style="fill:#555753"
     d="M 2 1 L 2 5 L 4 5 L 4 3 L 12 3 L 12 5 L 14 5 L 14 1 L 2 1 z M 3 6 C 1.343146 6 0 7.3431458 0 9 C 0 10.656854 1.343146 12 3 12 L 5.8222656 12 L 5.3125 12.28125 C 5.12983 12.47154 5.0051 12.743161 5 13 L 5 14 L 5.4140625 14 L 6 14 C 6.30945 14 6.55232 13.90971 6.75 13.71875 L 9 11.875 L 9 10.169922 C 7.916535 9.2117879 7.833467 9.101879 6.75 8.28125 C 6.55232 8.0903 6.275129 8 6 8 L 5.4140625 8 L 5 8 L 5 9 C 5 9.25689 5.12983 9.52846 5.3125 9.71875 L 5.8222656 10 L 3 10 C 2.447715 10 2 9.552285 2 9 C 2 8.4477153 2.447715 8 3 8 L 3 6 z M 4 6 L 4 7 L 5.4140625 7 L 6 7 C 6.4939355 7 7.024963 7.1564612 7.4453125 7.5625 C 7.6935962 7.7515701 7.821464 7.8609103 7.9960938 8 L 9 8 L 9 8.8378906 C 9.200706 9.0144885 9.3591671 9.1520228 9.6621094 9.4199219 L 10 9.71875 L 10 12.347656 L 9 13.167969 L 9 14 L 7.984375 14 L 7.3847656 14.492188 L 7.4453125 14.4375 C 7.0665486 14.803388 6.5039672 15 6 15 L 5.4140625 15 L 4 15 L 4 16 L 16 16 L 16 6 L 4 6 z M 11 8 L 14 8 L 14 10 L 11 10 L 11 8 z M 11 12 L 14 12 L 14 14 L 11 14 L 11 12 z "
     />
</svg>
